icons/svg/scan_20.svg

<?xml version="1.0" encoding="UTF-8"?>
<svg width="20px" height="20px" viewBox="0 0 20 20" version="1.1" xmlns="http://www.w3.org/2000/svg" xmlns:xlink="http://www.w3.org/1999/xlink">
    <!-- Generator: Sketch 57.1 (83088) - https://sketch.com -->
    <title>scan_20</title>
    <desc>Created with Sketch.</desc>
    <g id="New-Icon" stroke="none" stroke-width="1" fill="none" fill-rule="evenodd">
        <g id="scan_20" fill="#171B1F">
            <g id="fill">
                <path d="M0.5002,12.9999 C0.745533333,12.9999 0.949780247,13.1768877 0.992139643,13.4100619 L1.0002,13.4999 L1.0002,17.4999 C1.0002,18.2782529 1.59635225,18.9201907 2.35596308,18.9930195 L2.5002,18.9999 L6.5002,18.9999 C6.7762,18.9999 7.0002,19.2239 7.0002,19.4999 C7.0002,19.7452333 6.82321235,19.9494802 6.59003813,19.9918396 L6.5002,19.9999 L2.5002,19.9999 C1.17732,19.9999 0.0903696,18.9658648 0.005530176,17.6639758 L0.0002,17.4999 L0.0002,13.4999 C0.0002,13.2239 0.2242,12.9999 0.5002,12.9999 Z M19.5002,12.9999 C19.7455333,12.9999 19.9497802,13.1768877 19.9921396,13.4100619 L20.0002,13.4999 L20.0002,17.4999 C20.0002,18.82278 18.9661648,19.9097304 17.6642758,19.9945698 L17.5002,19.9999 L13.5002,19.9999 C13.2242,19.9999 13.0002,19.7759 13.0002,19.4999 C13.0002,19.2545667 13.1771877,19.0503198 13.4103619,19.0079604 L13.5002,18.9999 L17.5002,18.9999 C18.2785529,18.9999 18.9204907,18.4037478 18.9933195,17.6441369 L19.0002,17.4999 L19.0002,13.4999 C19.0002,13.2239 19.2242,12.9999 19.5002,12.9999 Z M0.5002,9.4999 L19.5002,9.4999 C19.7762,9.4999 20.0002,9.7239 20.0002,9.9999 C20.0002,10.2452333 19.8232123,10.4494802 19.5900381,10.4918396 L19.5002,10.4999 L0.5002,10.4999 C0.2242,10.4999 0.0002,10.2759 0.0002,9.9999 C0.0002,9.75456667 0.177187654,9.55031975 0.410361866,9.50796036 L0.5002,9.4999 L19.5002,9.4999 Z M17.5002,-0.0001 C18.82308,-0.0001 19.9100304,1.0339352 19.9948698,2.33582422 L20.0002,2.4999 L20.0002,6.4999 C20.0002,6.7759 19.7762,6.9999 19.5002,6.9999 C19.2548667,6.9999 19.0506198,6.82291235 19.0082604,6.58973813 L19.0002,6.4999 L19.0002,2.4999 C19.0002,1.72154706 18.4040478,1.07960934 17.6444369,1.00678052 L17.5002,0.9999 L13.5002,0.9999 C13.2242,0.9999 13.0002,0.7759 13.0002,0.4999 C13.0002,0.254566667 13.1771877,0.0503197531 13.4103619,0.00796035665 L13.5002,-0.0001 L17.5002,-0.0001 Z M6.5002,-0.0001 C6.7762,-0.0001 7.0002,0.2239 7.0002,0.4999 C7.0002,0.7759 6.7762,0.9999 6.5002,0.9999 L6.5002,0.9999 L2.5002,0.9999 C1.6732,0.9999 1.0002,1.6729 1.0002,2.4999 L1.0002,2.4999 L1.0002,6.4999 C1.0002,6.7759 0.7762,6.9999 0.5002,6.9999 C0.2242,6.9999 0.0002,6.7759 0.0002,6.4999 L0.0002,6.4999 L0.0002,2.4999 C0.0002,1.1219 1.1222,-0.0001 2.5002,-0.0001 L2.5002,-0.0001 Z"></path>
            </g>
        </g>
    </g>
</svg>

<svg width="20" height="20" xmlns="http://www.w3.org/2000/svg"><path d="M.5 13a.5.5 0 01.492.41L1 13.5v4c0 .778.596 1.42 1.356 1.493L2.5 19h4a.5.5 0 01.09.992L6.5 20h-4a2.504 2.504 0 01-2.494-2.336L0 17.5v-4a.5.5 0 01.5-.5zm19 0a.5.5 0 01.492.41l.008.09v4a2.504 2.504 0 01-2.336 2.495L17.5 20h-4a.5.5 0 01-.09-.992L13.5 19h4c.779 0 1.42-.596 1.493-1.356L19 17.5v-4a.5.5 0 01.5-.5zM.5 9.5h19a.5.5 0 01.09.992l-.09.008H.5a.5.5 0 01-.09-.992L.5 9.5h19zm17-9.5a2.504 2.504 0 012.495 2.336L20 2.5v4a.5.5 0 01-.992.09L19 6.5v-4c0-.778-.596-1.42-1.356-1.493L17.5 1h-4a.5.5 0 01-.09-.992L13.5 0h4zm-11 0a.5.5 0 010 1h-4C1.673 1 1 1.673 1 2.5v4a.5.5 0 01-1 0v-4C0 1.122 1.122 0 2.5 0z" fill="#171B1F" fill-rule="evenodd"/></svg>
